X:1
T:The Cruel War is Raging
M:4/4
L:1/4
K:C
 z c| G2 G A| c2 c e| d3/2 e/2 d c| e2| e- d| c2 d c| A c2 A| G2 A c|\
 c2||
